X:2150
T:Bride's Favorite
T:O'Brien's
R:Jig
M:6/8
L:1/8
K:G
D|~G3 BAB|GBd gdB|AFd cAF|GBd gdB|
~G3 BAB|GBd gdB|AFd cAF|AGF G2:|
d|~g3 f2a|gdB GBd|~g3 fed|egf e2f|
~g3 fga|gdB GBd|cAd cAF|AGF G2:|
D|GBd ~g3|edc BcA|GBd ~g3|faf g2a|
bgb afa|geg fed|ed^c def|gaf g2:|


